build/svg/cmd/32/renameslide.svg

<?xml version="1.0" encoding="UTF-8" standalone="no"?>
<svg
   xmlns:dc="http://purl.org/dc/elements/1.1/"
   xmlns:cc="http://creativecommons.org/ns#"
   xmlns:rdf="http://www.w3.org/1999/02/22-rdf-syntax-ns#"
   xmlns:svg="http://www.w3.org/2000/svg"
   xmlns="http://www.w3.org/2000/svg"
   xmlns:sodipodi="http://sodipodi.sourceforge.net/DTD/sodipodi-0.dtd"
   xmlns:inkscape="http://www.inkscape.org/namespaces/inkscape"
   viewBox="0 0 32 32"
   version="1.1"
   id="svg6"
   sodipodi:docname="renameslide.svg"
   inkscape:export-filename="/home/jupiter007/Libreoffice yaru theme fullcolor/build/cmd/32/renameslide.png"
   inkscape:export-xdpi="96"
   inkscape:export-ydpi="96"
   inkscape:version="0.92.5 (2060ec1f9f, 2020-04-08)">
  <metadata
     id="metadata12">
    <rdf:RDF>
      <cc:Work
         rdf:about="">
        <dc:format>image/svg+xml</dc:format>
        <dc:type
           rdf:resource="http://purl.org/dc/dcmitype/StillImage" />
      </cc:Work>
    </rdf:RDF>
  </metadata>
  <defs
     id="defs10" />
  <sodipodi:namedview
     pagecolor="#ffffff"
     bordercolor="#666666"
     borderopacity="1"
     objecttolerance="10"
     gridtolerance="10"
     guidetolerance="10"
     inkscape:pageopacity="0"
     inkscape:pageshadow="2"
     inkscape:window-width="1920"
     inkscape:window-height="1011"
     id="namedview8"
     showgrid="true"
     inkscape:zoom="20.85965"
     inkscape:cx="7.5897302"
     inkscape:cy="7.2720987"
     inkscape:window-x="0"
     inkscape:window-y="32"
     inkscape:window-maximized="1"
     inkscape:current-layer="svg6">
    <inkscape:grid
       type="xygrid"
       id="grid829" />
  </sodipodi:namedview>
  <path
     sodipodi:nodetypes="cccscsccccccccscscccccc"
     inkscape:connector-curvature="0"
     id="path4237-1"
     d="m 25.006201,6.999709 c 1.2582,0.0145 2.178891,-0.0306 2.931641,0.384766 0.37637,0.20766 0.673231,0.559386 0.837891,0.998046 0.16467,0.43867 0.224609,0.959588 0.224609,1.617188 v 1.488282 10.512301 c 0,0.657609 -0.0599,1.178578 -0.224609,1.617188 -0.16468,0.438611 -0.461531,0.788524 -0.837891,0.996092 -0.75272,0.415131 -1.673541,0.37165 -2.931641,0.386719 h -0.002 -18.006493 -0.0039 c -1.25819,-0.0145 -2.178891,0.0306 -2.931641,-0.384766 C 3.685797,24.407865 3.388946,24.056139 3.224276,23.61748 3.059737,23.178809 2.999658,22.657901 2.999658,22.000292 V 11.466507 9.999709 c 0,-0.6576 0.0599,-1.178577 0.224609,-1.617188 0.16468,-0.4386 0.461531,-0.788533 0.837891,-0.996093 0.75277,-0.41513 1.673601,-0.371639 2.931691,-0.386719 h 0.002 18.006493 z"
     style="font-style:normal;font-variant:normal;font-weight:normal;font-stretch:normal;font-size:15px;line-height:125%;font-family:Ubuntu;-inkscape-font-specification:Ubuntu;text-align:center;letter-spacing:0px;word-spacing:0px;writing-mode:lr-tb;text-anchor:middle;display:inline;opacity:0.6;fill:#000000;fill-opacity:1;stroke:none;stroke-width:0.99980211" />
  <path
     inkscape:connector-curvature="0"
     id="path1993"
     d="m 20.016973,8.026894 c 1.556581,0.0108 5.10999,-0.01175 6.659941,0.03877 0.461229,0.04267 1.016188,0.206419 1.15534,0.709967 0.218994,0.635346 0.108414,1.333787 0.145796,1.981924 0.0078,2.297085 0.02297,9.596428 -0.02152,11.88578 -0.0391,0.46193 -0.202551,1.012666 -0.698756,1.163666 -0.632456,0.225082 -1.284144,0.12274 -1.935974,0.154299 -1.424235,0.0068 -10.851197,0.01102 -12.277054,0.01131 -1.704531,3.49e-4 -5.408388,-0.005 -7.10719,-0.01851 C 5.425645,23.94209 4.753857,23.97403 4.352811,23.548909 3.931714,23.009126 4.065738,22.280888 4.030066,21.645121 4.018196,19.200799 4.002376,11.734027 4.051966,9.288327 4.101246,8.886286 4.221958,8.425374 4.627105,8.243851 5.295274,7.949754 6.05331,8.075832 6.753026,8.038279 8.507433,8.026479 18.262534,8.025799 20.016973,8.026889 Z"
     style="opacity:1;vector-effect:none;fill:#ffffff;fill-opacity:1;stroke:none;stroke-width:1;stroke-linecap:round;stroke-linejoin:bevel;stroke-miterlimit:4;stroke-dasharray:none;stroke-dashoffset:0;stroke-opacity:1"
     sodipodi:nodetypes="cccccccscccccccc" />
  <path
     sodipodi:nodetypes="ccccccccccccc"
     style="opacity:0.6;fill:#000000;stroke:#000000;stroke-width:2;stroke-linejoin:round;stroke-miterlimit:4;stroke-dasharray:none"
     inkscape:connector-curvature="0"
     id="path822"
     d="m 23,15.00002 v 2 h 3.00001 l -10e-6,8 h -3 l 10e-6,2 H 31 l -10e-6,-2 H 28 L 28.00001,17 31,17.00002 v -2 z" />
  <path
     d="m 23,15.00002 v 2 h 3.00001 l -10e-6,8 h -3 l 10e-6,2 H 31 l -10e-6,-2 H 28 L 28.00001,17 31,17.00002 v -2 z"
     id="path4"
     inkscape:connector-curvature="0"
     style="fill:#aee3f8;fill-opacity:1;stroke-width:1.33333004"
     sodipodi:nodetypes="ccccccccccccc" />
</svg>

<svg xmlns="http://www.w3.org/2000/svg" viewBox="0 0 32 32"><path d="M25.006 7c1.258.014 2.18-.03 2.932.384.376.208.673.56.838.999.164.438.224.96.224 1.617v12c0 .658-.06 1.179-.224 1.617a1.875 1.875 0 01-.838.997c-.753.415-1.674.371-2.932.386H6.994c-1.258-.014-2.18.03-2.932-.384a1.88 1.88 0 01-.838-.999C3.06 23.18 3 22.657 3 22V10c0-.658.06-1.179.224-1.617.165-.44.462-.789.838-.997.753-.415 1.674-.371 2.932-.386h18.008z" style="line-height:125%;-inkscape-font-specification:Ubuntu;text-align:center" font-weight="400" font-size="15" font-family="Ubuntu" letter-spacing="0" word-spacing="0" text-anchor="middle" opacity=".6"/><path d="M20.017 8.027c1.557.01 5.11-.012 6.66.039.461.042 1.016.206 1.155.71.22.635.109 1.333.146 1.982.008 2.297.023 9.596-.021 11.885-.04.462-.203 1.013-.7 1.164-.632.225-1.283.123-1.935.154-1.424.007-10.851.011-12.277.012-1.705 0-5.409-.005-7.107-.019-.512-.012-1.184.02-1.585-.405-.421-.54-.287-1.268-.323-1.904-.012-2.444-.028-9.911.022-12.357.05-.402.17-.863.575-1.044.668-.294 1.426-.168 2.126-.206 1.754-.012 11.51-.012 13.264-.011z" fill="#fff"/><path d="M23 15v2h3v8h-3v2h8v-2h-3v-8h3v-2z" opacity=".6" stroke="#000" stroke-width="2" stroke-linejoin="round"/><path d="M23 15v2h3v8h-3v2h8v-2h-3v-8h3v-2z" fill="#aee3f8"/></svg>
